files/resources/svgs/general/s-clipboard-document.svg

<svg width="24" height="24" viewBox="0 0 24 24" fill="none" xmlns="http://www.w3.org/2000/svg">
<path fill-rule="evenodd" clip-rule="evenodd" d="M17.6633 3.11765C17.8879 3.13319 18.1122 3.15026 18.336 3.16883C19.8753 3.29659 21 4.60281 21 6.10821V15.75C21 17.4068 19.6569 18.75 18 18.75V16.5C18 10.5781 13.4244 5.72484 7.61572 5.28281C7.93989 4.15127 8.91565 3.27245 10.1641 3.16883C10.3879 3.15026 10.6121 3.13319 10.8368 3.11765C11.3367 2.15647 12.3417 1.5 13.5 1.5H15C16.1584 1.5 17.1634 2.15647 17.6633 3.11765ZM12 4.5C12 3.67157 12.6716 3 13.5 3H15C15.8285 3 16.5 3.67157 16.5 4.5H12Z" fill="#0F172A"/>
<path d="M3 8.625C3 7.58947 3.83947 6.75 4.875 6.75H5.25C7.32107 6.75 9 8.42893 9 10.5V12.375C9 13.4105 9.83947 14.25 10.875 14.25H12.75C14.8211 14.25 16.5 15.9289 16.5 18V20.625C16.5 21.6605 15.6605 22.5 14.625 22.5H4.875C3.83947 22.5 3 21.6605 3 20.625V8.625Z" fill="#0F172A"/>
<path d="M10.5 10.5C10.5 9.18695 10.018 7.98648 9.22119 7.0659C12.6201 7.95377 15.2962 10.6299 16.1841 14.0288C15.2635 13.232 14.0631 12.75 12.75 12.75H10.875C10.6679 12.75 10.5 12.5821 10.5 12.375V10.5Z" fill="#0F172A"/>
</svg>

<svg xmlns="http://www.w3.org/2000/svg" viewBox="0 0 24 24" fill="currentColor" aria-hidden="true">
  <path fill-rule="evenodd" d="M17.663 3.118c.225.015.45.032.673.05C19.876 3.298 21 4.604 21 6.109v9.642a3 3 0 01-3 3V16.5c0-5.922-4.576-10.775-10.384-11.217.324-1.132 1.3-2.01 2.548-2.114.224-.019.448-.036.673-.051A3 3 0 0113.5 1.5H15a3 3 0 012.663 1.618zM12 4.5A1.5 1.5 0 0113.5 3H15a1.5 1.5 0 011.5 1.5H12z" clip-rule="evenodd"/>
  <path d="M3 8.625c0-1.036.84-1.875 1.875-1.875h.375A3.75 3.75 0 019 10.5v1.875c0 1.036.84 1.875 1.875 1.875h1.875A3.75 3.75 0 0116.5 18v2.625c0 1.035-.84 1.875-1.875 1.875h-9.75A1.875 1.875 0 013 20.625v-12z"/>
  <path d="M10.5 10.5a5.23 5.23 0 00-1.279-3.434 9.768 9.768 0 016.963 6.963 5.23 5.23 0 00-3.434-1.279h-1.875a.375.375 0 01-.375-.375V10.5z"/>
</svg>
